status/22/dialog-warning.svg

<?xml version="1.0" encoding="UTF-8" standalone="no"?>
<!-- Created with Inkscape (http://www.inkscape.org/) -->

<svg
   xmlns:svg="http://www.w3.org/2000/svg"
   xmlns="http://www.w3.org/2000/svg"
   xmlns:xlink="http://www.w3.org/1999/xlink"
   version="1.0"
   width="22"
   height="22"
   id="svg2">
  <defs
     id="defs4">
    <linearGradient
       id="linearGradient4873">
      <stop
         id="stop4875"
         style="stop-color:white;stop-opacity:1"
         offset="0" />
      <stop
         id="stop4877"
         style="stop-color:white;stop-opacity:0"
         offset="1" />
    </linearGradient>
    <linearGradient
       x1="63.397362"
       y1="-12.489107"
       x2="63.397362"
       y2="5.4675598"
       id="linearGradient2406"
       xlink:href="#linearGradient4873"
       gradientUnits="userSpaceOnUse"
       gradientTransform="matrix(1.0862728,0,0,1.0862481,-56.56661,14.813638)" />
    <linearGradient
       id="linearGradient2490">
      <stop
         id="stop2492"
         style="stop-color:#791235;stop-opacity:1"
         offset="0" />
      <stop
         id="stop2494"
         style="stop-color:#dd3b27;stop-opacity:1"
         offset="1" />
    </linearGradient>
    <linearGradient
       x1="18.379412"
       y1="44.980297"
       x2="18.379412"
       y2="3.0816143"
       id="linearGradient2411"
       xlink:href="#linearGradient2490"
       gradientUnits="userSpaceOnUse"
       gradientTransform="matrix(0.5160413,0,0,0.5160413,-1.384991,-1.3849911)" />
    <linearGradient
       id="linearGradient3242">
      <stop
         id="stop3244"
         style="stop-color:#f8b17e;stop-opacity:1"
         offset="0" />
      <stop
         id="stop3246"
         style="stop-color:#e35d4f;stop-opacity:1"
         offset="0.26238" />
      <stop
         id="stop3248"
         style="stop-color:#c6262e;stop-opacity:1"
         offset="0.66093999" />
      <stop
         id="stop3250"
         style="stop-color:#690b54;stop-opacity:1"
         offset="1" />
    </linearGradient>
    <radialGradient
       cx="23.895569"
       cy="3.9900031"
       r="20.397499"
       fx="23.895569"
       fy="3.9900031"
       id="radialGradient2409"
       xlink:href="#linearGradient3242"
       gradientUnits="userSpaceOnUse"
       gradientTransform="matrix(0,1.2316137,-1.6257082,0,17.486581,-29.720783)" />
  </defs>
  <g
     id="layer1">
    <g
       id="g2505">
      <path
         d="m 11.000002,0.501785 c -5.792553,0 -10.498217,4.7056616 -10.498217,10.498214 0,5.792554 4.705664,10.498219 10.498217,10.498216 5.79255,0 10.498219,-4.705662 10.498213,-10.498216 0,-5.7925524 -4.705663,-10.498214 -10.498213,-10.498214 z"
         id="path2555"
         style="fill:url(#radialGradient2409);fill-opacity:1;stroke:url(#linearGradient2411);stroke-width:1.00365424;stroke-linecap:round;stroke-linejoin:round;stroke-miterlimit:4;stroke-opacity:1;stroke-dasharray:none;stroke-dashoffset:0" />
      <path
         d="m 20.499999,10.999663 c 0,5.246874 -4.253609,9.500336 -9.499879,9.500336 -5.2467526,0 -9.5001201,-4.253509 -9.5001201,-9.500336 0,-5.2466312 4.2533675,-9.4996623 9.5001201,-9.4996623 5.24627,0 9.499879,4.2530311 9.499879,9.4996623 l 0,0 z"
         id="path2463"
         style="opacity:0.4;fill:none;stroke:url(#linearGradient2406);stroke-width:0.99999994;stroke-miterlimit:4;stroke-opacity:1;stroke-dasharray:none" />
    </g>
    <g
       transform="translate(34.813304,-0.1137556)"
       id="g2481">
      <path
         d="m -25.214077,4.4004423 c 0.331945,2.8104459 0.71217,5.6015497 0.99474,8.4230037 0.284211,0 0.617557,0 0.901768,0 0.234383,-2.709491 0.612431,-5.4026096 0.885143,-8.1087415 0.139014,-0.6407739 -0.240553,-1.4015727 -1.021214,-1.5572521 -0.771408,-0.1954857 -1.633264,0.2885987 -1.735838,0.9800741 -0.01701,0.086803 -0.0246,0.1749018 -0.0246,0.2629158 l -2e-6,0 z m -0.09838,11.4264807 c -0.0351,0.836563 1.026892,1.492345 1.933628,1.227123 0.87824,-0.194275 1.340822,-1.151039 0.890723,-1.831133 -0.402917,-0.703026 -1.584447,-0.93466 -2.264126,-0.396605 -0.343566,0.244652 -0.571285,0.609885 -0.560225,1.000616 l 0,-10e-7 z"
         id="path3295"
         style="font-size:62.4582634px;font-style:normal;font-variant:normal;font-weight:normal;font-stretch:normal;text-align:start;line-height:125%;writing-mode:lr-tb;text-anchor:start;opacity:0.2;fill:black;fill-opacity:1;stroke:none;font-family:Georgia" />
      <path
         d="m -25.214077,5.4004426 c 0.331945,2.810446 0.71217,5.6015504 0.99474,8.4230044 0.284211,0 0.617557,0 0.901768,0 0.234383,-2.709492 0.612431,-5.4026103 0.885143,-8.1087421 0.139014,-0.6407739 -0.240553,-1.4015727 -1.021214,-1.5572522 -0.771408,-0.1954855 -1.633264,0.2885986 -1.735838,0.9800742 -0.01701,0.086803 -0.0246,0.1749017 -0.0246,0.2629157 l -2e-6,0 z m -0.09838,11.4264814 c -0.0351,0.836563 1.026892,1.492345 1.933628,1.227122 0.87824,-0.194275 1.340822,-1.151039 0.890723,-1.831132 -0.402917,-0.703026 -1.584447,-0.93466 -2.264126,-0.396605 -0.343566,0.244652 -0.571285,0.609885 -0.560225,1.000616 l 0,-10e-7 z"
         id="text2315"
         style="font-size:62.4582634px;font-style:normal;font-variant:normal;font-weight:normal;font-stretch:normal;text-align:start;line-height:125%;writing-mode:lr-tb;text-anchor:start;fill:white;fill-opacity:1;stroke:none;font-family:Georgia" />
    </g>
  </g>
</svg>

<?xml version="1.0" encoding="UTF-8" standalone="no"?>
<!-- Created with Inkscape (http://www.inkscape.org/) -->
<svg
   xmlns:svg="http://www.w3.org/2000/svg"
   xmlns="http://www.w3.org/2000/svg"
   xmlns:xlink="http://www.w3.org/1999/xlink"
   version="1.0"
   width="22"
   height="22"
   id="svg2">
  <defs
     id="defs4">
    <linearGradient
       id="linearGradient4873">
      <stop
         id="stop4875"
         style="stop-color:#ffffff;stop-opacity:1"
         offset="0" />
      <stop
         id="stop4877"
         style="stop-color:#ffffff;stop-opacity:0"
         offset="1" />
    </linearGradient>
    <linearGradient
       x1="63.397362"
       y1="-12.489107"
       x2="63.397362"
       y2="5.4675598"
       id="linearGradient2406"
       xlink:href="#linearGradient4873"
       gradientUnits="userSpaceOnUse"
       gradientTransform="matrix(1.0862728,0,0,1.0862481,-56.56661,14.813638)" />
    <linearGradient
       id="linearGradient2490">
      <stop
         id="stop2492"
         style="stop-color:#791235;stop-opacity:1"
         offset="0" />
      <stop
         id="stop2494"
         style="stop-color:#dd3b27;stop-opacity:1"
         offset="1" />
    </linearGradient>
    <linearGradient
       x1="18.379412"
       y1="44.980297"
       x2="18.379412"
       y2="3.0816143"
       id="linearGradient2411"
       xlink:href="#linearGradient2490"
       gradientUnits="userSpaceOnUse"
       gradientTransform="matrix(0.5160413,0,0,0.5160413,-1.384991,-1.3849911)" />
    <linearGradient
       id="linearGradient3242">
      <stop
         id="stop3244"
         style="stop-color:#f8b17e;stop-opacity:1"
         offset="0" />
      <stop
         id="stop3246"
         style="stop-color:#e35d4f;stop-opacity:1"
         offset="0.26238" />
      <stop
         id="stop3248"
         style="stop-color:#c6262e;stop-opacity:1"
         offset="0.66093999" />
      <stop
         id="stop3250"
         style="stop-color:#690b54;stop-opacity:1"
         offset="1" />
    </linearGradient>
    <radialGradient
       cx="23.895569"
       cy="3.9900031"
       r="20.397499"
       fx="23.895569"
       fy="3.9900031"
       id="radialGradient2409"
       xlink:href="#linearGradient3242"
       gradientUnits="userSpaceOnUse"
       gradientTransform="matrix(0,1.2316137,-1.6257082,0,17.486581,-29.720783)" />
  </defs>
  <g
     id="layer1">
    <g
       id="g2505">
      <path
         d="M 11.000002,0.501785 C 5.207449,0.501785 0.501785,5.2074466 0.501785,10.999999 C 0.501785,16.792553 5.207449,21.498218 11.000002,21.498215 C 16.792552,21.498215 21.498221,16.792553 21.498215,10.999999 C 21.498215,5.2074466 16.792552,0.501785 11.000002,0.501785 z"
         id="path2555"
         style="fill:url(#radialGradient2409);fill-opacity:1;stroke:url(#linearGradient2411);stroke-width:1.00365424;stroke-linecap:round;stroke-linejoin:round;stroke-miterlimit:4;stroke-dasharray:none;stroke-dashoffset:0;stroke-opacity:1" />
      <path
         d="M 20.499999,10.999663 C 20.499999,16.246537 16.24639,20.499999 11.00012,20.499999 C 5.7533674,20.499999 1.4999999,16.24649 1.4999999,10.999663 C 1.4999999,5.7530318 5.7533674,1.5000007 11.00012,1.5000007 C 16.24639,1.5000007 20.499999,5.7530318 20.499999,10.999663 L 20.499999,10.999663 z"
         id="path2463"
         style="opacity:0.4;fill:none;fill-opacity:1;fill-rule:nonzero;stroke:url(#linearGradient2406);stroke-width:0.99999994;stroke-miterlimit:4;stroke-dasharray:none;stroke-opacity:1" />
    </g>
    <g
       transform="translate(34.813304,-0.1137556)"
       id="g2481">
      <path
         d="M -25.214077,4.4004423 C -24.882132,7.2108882 -24.501907,10.001992 -24.219337,12.823446 C -23.935126,12.823446 -23.60178,12.823446 -23.317569,12.823446 C -23.083186,10.113955 -22.705138,7.4208364 -22.432426,4.7147045 C -22.293412,4.0739306 -22.672979,3.3131318 -23.45364,3.1574524 C -24.225048,2.9619667 -25.086904,3.4460511 -25.189478,4.1375265 C -25.20649,4.2243299 -25.21408,4.3124283 -25.214075,4.4004423 L -25.214077,4.4004423 z M -25.312457,15.826923 C -25.347558,16.663486 -24.285565,17.319268 -23.378829,17.054046 C -22.500589,16.859771 -22.038007,15.903007 -22.488106,15.222913 C -22.891023,14.519887 -24.072553,14.288253 -24.752232,14.826308 C -25.095798,15.07096 -25.323517,15.436193 -25.312457,15.826924 L -25.312457,15.826923 z"
         id="path3295"
         style="font-size:62.4582634px;font-style:normal;font-variant:normal;font-weight:normal;font-stretch:normal;text-align:start;line-height:125%;writing-mode:lr-tb;text-anchor:start;opacity:0.2;fill:#000000;fill-opacity:1;stroke:none;stroke-width:0.5;stroke-linecap:round;stroke-linejoin:round;stroke-miterlimit:4;stroke-dasharray:none;stroke-opacity:1;font-family:Georgia" />
      <path
         d="M -25.214077,5.4004426 C -24.882132,8.2108886 -24.501907,11.001993 -24.219337,13.823447 C -23.935126,13.823447 -23.60178,13.823447 -23.317569,13.823447 C -23.083186,11.113955 -22.705138,8.4208367 -22.432426,5.7147049 C -22.293412,5.073931 -22.672979,4.3131322 -23.45364,4.1574527 C -24.225048,3.9619672 -25.086904,4.4460513 -25.189478,5.1375269 C -25.20649,5.2243302 -25.21408,5.3124286 -25.214075,5.4004426 L -25.214077,5.4004426 z M -25.312457,16.826924 C -25.347558,17.663487 -24.285565,18.319269 -23.378829,18.054046 C -22.500589,17.859771 -22.038007,16.903007 -22.488106,16.222914 C -22.891023,15.519888 -24.072553,15.288254 -24.752232,15.826309 C -25.095798,16.070961 -25.323517,16.436194 -25.312457,16.826925 L -25.312457,16.826924 z"
         id="text2315"
         style="font-size:62.4582634px;font-style:normal;font-variant:normal;font-weight:normal;font-stretch:normal;text-align:start;line-height:125%;writing-mode:lr-tb;text-anchor:start;fill:#ffffff;fill-opacity:1;stroke:none;stroke-width:0.5;stroke-linecap:round;stroke-linejoin:round;stroke-miterlimit:4;stroke-dasharray:none;stroke-opacity:1;font-family:Georgia" />
    </g>
  </g>
</svg>
